packages/console/src/assets/images/circle-plus.svg

<svg
    width="16"
    height="16"
    viewBox="0 0 16 16"
    fill="none"
    xmlns="http://www.w3.org/2000/svg"
    
  >
    <path
      d="M8.00017 1.33325C6.68162 1.33325 5.39269 1.72425 4.29636 2.45679C3.20004 3.18933 2.34555 4.23052 1.84097 5.4487C1.33638 6.66687 1.20436 8.00731 1.4616 9.30052C1.71883 10.5937 2.35377 11.7816 3.28612 12.714C4.21847 13.6463 5.40636 14.2813 6.69956 14.5385C7.99277 14.7957 9.33321 14.6637 10.5514 14.1591C11.7696 13.6545 12.8108 12.8 13.5433 11.7037C14.2758 10.6074 14.6668 9.31846 14.6668 7.99992C14.6668 7.12444 14.4944 6.25753 14.1594 5.4487C13.8243 4.63986 13.3333 3.90493 12.7142 3.28587C12.0952 2.66682 11.3602 2.17575 10.5514 1.84072C9.74255 1.50569 8.87564 1.33325 8.00017 1.33325ZM8.00017 13.3333C6.94533 13.3333 5.91419 13.0205 5.03712 12.4344C4.16006 11.8484 3.47648 11.0154 3.07281 10.0409C2.66914 9.06636 2.56352 7.994 2.76931 6.95944C2.9751 5.92487 3.48305 4.97456 4.22893 4.22868C4.97481 3.4828 5.92512 2.97485 6.95968 2.76906C7.99425 2.56328 9.0666 2.66889 10.0411 3.07256C11.0157 3.47623 11.8486 4.15982 12.4347 5.03688C13.0207 5.91394 13.3335 6.94509 13.3335 7.99992C13.3335 9.41441 12.7716 10.771 11.7714 11.7712C10.7712 12.7713 9.41465 13.3333 8.00017 13.3333ZM10.6668 7.33325H8.66683V5.33325C8.66683 5.15644 8.59659 4.98687 8.47157 4.86185C8.34655 4.73682 8.17698 4.66659 8.00017 4.66659C7.82335 4.66659 7.65379 4.73682 7.52876 4.86185C7.40374 4.98687 7.3335 5.15644 7.3335 5.33325V7.33325H5.3335C5.15669 7.33325 4.98712 7.40349 4.86209 7.52851C4.73707 7.65354 4.66683 7.82311 4.66683 7.99992C4.66683 8.17673 4.73707 8.3463 4.86209 8.47132C4.98712 8.59635 5.15669 8.66659 5.3335 8.66659H7.3335V10.6666C7.3335 10.8434 7.40374 11.013 7.52876 11.138C7.65379 11.263 7.82335 11.3333 8.00017 11.3333C8.17698 11.3333 8.34655 11.263 8.47157 11.138C8.59659 11.013 8.66683 10.8434 8.66683 10.6666V8.66659H10.6668C10.8436 8.66659 11.0132 8.59635 11.1382 8.47132C11.2633 8.3463 11.3335 8.17673 11.3335 7.99992C11.3335 7.82311 11.2633 7.65354 11.1382 7.52851C11.0132 7.40349 10.8436 7.33325 10.6668 7.33325Z"
      fill="currentColor"
    />
  </svg>

<svg width="16" height="16" viewBox="0 0 16 16" fill="none" xmlns="http://www.w3.org/2000/svg"><path d="M8 1.333a6.667 6.667 0 1 0 0 13.334A6.667 6.667 0 0 0 8 1.333Zm0 12A5.333 5.333 0 1 1 8 2.667a5.333 5.333 0 0 1 0 10.666Zm2.667-6h-2v-2a.667.667 0 0 0-1.333 0v2h-2a.667.667 0 0 0 0 1.334h2v2a.667.667 0 1 0 1.333 0v-2h2a.667.667 0 1 0 0-1.334Z" fill="currentColor"/></svg>
